modules/zondicons/icons/view-column.svg

<svg width="20" height="20" viewBox="0 0 20 20" xmlns="http://www.w3.org/2000/svg"><path d="M0 2h20v16H0V2zm2 2h16v12H2V4zm4 0h2v12H6V4zm6 0h2v12h-2V4z" fill="#000" fill-rule="evenodd"/></svg>

<?xml version="1.0" encoding="UTF-8" standalone="no"?>
<svg width="20px" height="20px" viewBox="0 0 20 20" version="1.1" xmlns="http://www.w3.org/2000/svg" xmlns:xlink="http://www.w3.org/1999/xlink">
    <!-- Generator: Sketch 3.7.2 (28276) - http://www.bohemiancoding.com/sketch -->
    <title>view-column</title>
    <desc>Created with Sketch.</desc>
    <defs></defs>
    <g id="Page-1" stroke="none" stroke-width="1" fill="none" fill-rule="evenodd">
        <g id="view-column" fill="#000000">
            <path d="M0,2 L20,2 L20,18 L0,18 L0,2 Z M2,4 L18,4 L18,16 L2,16 L2,4 Z M6,4 L8,4 L8,16 L6,16 L6,4 Z M12,4 L14,4 L14,16 L12,16 L12,4 Z" id="Combined-Shape"></path>
        </g>
    </g>
</svg>
